src/gesture/button-home-symbolic.svg

<svg width="64" height="64" version="1.1" xmlns="http://www.w3.org/2000/svg">
  <title>Gnome Symbolic Icon Theme</title>
  <g transform="translate(-283,-601)">
    <path transform="translate(283,601)" d="m32 16a16 16 0 0 0-16 16 16 16 0 0 0 16 16 16 16 0 0 0 16-16 16 16 0 0 0-16-16zm0 2.875a13 13 0 0 1 13 13 13 13 0 0 1-13 13 13 13 0 0 1-13-13 13 13 0 0 1 13-13z" fill="#bebebe"/>
    <g transform="matrix(1 0 0 1 149.63 -134.9)">
      <title>go-home</title>
      <g transform="matrix(.026036 0 0 .026036 345.97 902.08)" fill="#bebebe"></g>
    </g>
    <g fill="#bebebe">
      <g>
        <path d="m309.79 630a1.0001 1.0001 0 0 0-0.78125 1v7a1.0001 1.0001 0 0 0 1 1h10a1.0001 1.0001 0 0 0 1-1v-7a1.0001 1.0001 0 1 0-2 0v6h-8v-6a1.0001 1.0001 0 0 0-1.2188-1z" color="#000000" style="text-decoration-line:none;text-indent:0;text-transform:none"/>
        <path d="m314.91 626a1.0001 1.0001 0 0 0-0.5 0.1875l-7 5a1.0063 1.0063 0 1 0 1.1875 1.625l6.4062-4.5625 6.4062 4.5625a1.0063 1.0063 0 1 0 1.1875-1.625l-7-5a1.0001 1.0001 0 0 0-0.6875-0.1875z" color="#000000" style="text-decoration-line:none;text-indent:0;text-transform:none"/>
        <rect x="313.01" y="633" width="3" height="6" color="#bebebe"/>
      </g>
      <rect transform="scale(-1,1)" x="-323.01" y="632" width="1" height="1" rx="0" ry="1"/>
      <rect transform="scale(-1,1)" x="-308.01" y="632" width="1" height="1" rx="0" ry="1"/>
    </g>
  </g>
</svg>

<?xml version="1.0" encoding="UTF-8" standalone="no"?>
<!-- Created with Inkscape (http://www.inkscape.org/) -->

<svg
   xmlns:dc="http://purl.org/dc/elements/1.1/"
   xmlns:cc="http://creativecommons.org/ns#"
   xmlns:rdf="http://www.w3.org/1999/02/22-rdf-syntax-ns#"
   xmlns:svg="http://www.w3.org/2000/svg"
   xmlns="http://www.w3.org/2000/svg"
   xmlns:sodipodi="http://sodipodi.sourceforge.net/DTD/sodipodi-0.dtd"
   xmlns:inkscape="http://www.inkscape.org/namespaces/inkscape"
   sodipodi:docname="button-home-symbolic.svg"
   height="64"
   id="svg7384"
   inkscape:version="0.92.2 2405546, 2018-03-11"
   version="1.1"
   width="64">
  <metadata
     id="metadata90">
    <rdf:RDF>
      <cc:Work
         rdf:about="">
        <dc:format>image/svg+xml</dc:format>
        <dc:type
           rdf:resource="http://purl.org/dc/dcmitype/StillImage" />
        <dc:title>Gnome Symbolic Icon Theme</dc:title>
      </cc:Work>
    </rdf:RDF>
  </metadata>
  <sodipodi:namedview
     inkscape:bbox-paths="false"
     bordercolor="#666666"
     borderopacity="1"
     inkscape:current-layer="layer11"
     inkscape:cx="-167.54888"
     inkscape:cy="-0.37949867"
     gridtolerance="10"
     inkscape:guide-bbox="true"
     guidetolerance="10"
     id="namedview88"
     inkscape:object-nodes="false"
     inkscape:object-paths="false"
     objecttolerance="10"
     pagecolor="#555753"
     inkscape:pageopacity="1"
     inkscape:pageshadow="2"
     showborder="false"
     showgrid="false"
     showguides="true"
     inkscape:snap-bbox="true"
     inkscape:snap-bbox-midpoints="false"
     inkscape:snap-global="true"
     inkscape:snap-grids="true"
     inkscape:snap-nodes="false"
     inkscape:snap-others="false"
     inkscape:snap-to-guides="true"
     inkscape:window-height="1376"
     inkscape:window-maximized="1"
     inkscape:window-width="2560"
     inkscape:window-x="0"
     inkscape:window-y="27"
     inkscape:zoom="2.8284271">
    <inkscape:grid
       empspacing="2"
       enabled="true"
       id="grid4866"
       snapvisiblegridlinesonly="true"
       spacingx="1"
       spacingy="1"
       type="xygrid"
       visible="true"
       originx="0"
       originy="0" />
  </sodipodi:namedview>
  <title
     id="title9167">Gnome Symbolic Icon Theme</title>
  <defs
     id="defs7386" />
  <g
     inkscape:groupmode="layer"
     id="layer9"
     inkscape:label="status"
     style="display:inline"
     transform="translate(-283,-601)" />
  <g
     inkscape:groupmode="layer"
     id="layer10"
     inkscape:label="devices"
     transform="translate(-283,-601)" />
  <g
     inkscape:groupmode="layer"
     id="layer11"
     inkscape:label="apps"
     transform="translate(-283,-601)">
    <path
       style="opacity:1;fill:#bebebe;fill-opacity:1;stroke:none;stroke-width:0;stroke-miterlimit:4;stroke-dasharray:none;stroke-dashoffset:0;stroke-opacity:1"
       d="M 32 16 A 16 16 0 0 0 16 32 A 16 16 0 0 0 32 48 A 16 16 0 0 0 48 32 A 16 16 0 0 0 32 16 z M 32 18.875 A 13 13 0 0 1 45 31.875 A 13 13 0 0 1 32 44.875 A 13 13 0 0 1 19 31.875 A 13 13 0 0 1 32 18.875 z "
       transform="translate(283,601)"
       id="path828" />
    <g
       id="g5388"
       transform="matrix(1,0,0,0.99999871,149.62653,-134.9021)">
      <title
         id="title5390">go-home</title>
      <g
         id="g5392"
         style="fill:#bebebe;fill-opacity:1"
         transform="matrix(0.02603569,0,0,0.02603569,345.96663,902.07624)">
        <g
           id="g5394"
           style="fill:#bebebe;fill-opacity:1" />
        <g
           id="g5396"
           style="fill:#bebebe;fill-opacity:1" />
      </g>
      <g
         id="g5398"
         inkscape:label="go-down"
         transform="matrix(0,1,1,0,-360.61998,639.9031)" />
    </g>
    <path
       inkscape:connector-curvature="0"
       d="m 309.7876,630 a 1.0001,1.0001 0 0 0 -0.78125,1 v 7 a 1.0001,1.0001 0 0 0 1,1 h 10 a 1.0001,1.0001 0 0 0 1,-1 v -7 a 1.0001,1.0001 0 1 0 -2,0 v 6 h -8 v -6 a 1.0001,1.0001 0 0 0 -1.21875,-1 z"
       id="path5414"
       style="color:#000000;font-style:normal;font-variant:normal;font-weight:normal;font-stretch:normal;font-size:medium;line-height:normal;font-family:Sans;-inkscape-font-specification:Sans;text-indent:0;text-align:start;text-decoration:none;text-decoration-line:none;letter-spacing:normal;word-spacing:normal;text-transform:none;writing-mode:lr-tb;direction:ltr;baseline-shift:baseline;text-anchor:start;display:inline;overflow:visible;visibility:visible;fill:#bebebe;fill-opacity:1;stroke:none;stroke-width:2;marker:none;enable-background:accumulate" />
    <path
       inkscape:connector-curvature="0"
       d="m 314.9126,626 a 1.0001,1.0001 0 0 0 -0.5,0.1875 l -7,5 a 1.0063276,1.0063276 0 1 0 1.1875,1.625 l 6.40625,-4.5625 6.40625,4.5625 a 1.0063276,1.0063276 0 1 0 1.1875,-1.625 l -7,-5 A 1.0001,1.0001 0 0 0 314.9126,626 Z"
       id="path6184"
       style="color:#000000;font-style:normal;font-variant:normal;font-weight:normal;font-stretch:normal;font-size:medium;line-height:normal;font-family:Sans;-inkscape-font-specification:Sans;text-indent:0;text-align:start;text-decoration:none;text-decoration-line:none;letter-spacing:normal;word-spacing:normal;text-transform:none;writing-mode:lr-tb;direction:ltr;baseline-shift:baseline;text-anchor:start;display:inline;overflow:visible;visibility:visible;fill:#bebebe;fill-opacity:1;stroke:none;stroke-width:2;marker:none;enable-background:accumulate" />
    <rect
       height="6"
       id="rect6261"
       style="color:#bebebe;display:inline;overflow:visible;visibility:visible;fill:#bebebe;fill-opacity:1;fill-rule:nonzero;stroke:none;stroke-width:2;marker:none;enable-background:accumulate"
       width="3"
       x="313.00659"
       y="633" />
    <rect
       height="1"
       id="rect8452-7"
       rx="0"
       ry="1"
       style="display:inline;fill:#bebebe;fill-opacity:1;stroke:none"
       transform="scale(-1,1)"
       width="1"
       x="-323.00671"
       y="632" />
    <rect
       height="1"
       id="rect8452-8"
       rx="0"
       ry="1"
       style="display:inline;fill:#bebebe;fill-opacity:1;stroke:none"
       transform="scale(-1,1)"
       width="1"
       x="-308.00671"
       y="632" />
  </g>
  <g
     inkscape:groupmode="layer"
     id="layer13"
     inkscape:label="places"
     transform="translate(-283,-601)" />
  <g
     inkscape:groupmode="layer"
     id="layer14"
     inkscape:label="mimetypes"
     transform="translate(-283,-601)" />
  <g
     inkscape:groupmode="layer"
     id="layer15"
     inkscape:label="emblems"
     style="display:inline"
     transform="translate(-283,-601)" />
  <g
     inkscape:groupmode="layer"
     id="g71291"
     inkscape:label="emotes"
     style="display:inline"
     transform="translate(-283,-601)" />
  <g
     inkscape:groupmode="layer"
     id="g4953"
     inkscape:label="categories"
     style="display:inline"
     transform="translate(-283,-601)" />
  <g
     inkscape:groupmode="layer"
     id="layer12"
     inkscape:label="actions"
     style="display:inline"
     transform="translate(-283,-601)" />
</svg>
